X:86
T:Brian Boru's March
M:6/8
L:1/8
S:Colin Hume's website,  colinhume.com  - chords can also be printed below the stave.
Q:3/8=100
K:Am
P:A
|:e | "Am"c>BA A2e | c>BA A2d | "G"B>AG G2d | B>AG G2e |\
"Am"c>BA A2e | c>BA A3 | "F"A>cd "E7"e2d | "Am"cA2-A2 :|
P:B
|:z | "C"Gcd e2d | e2d e2d | "G"GBc d2B | d2B d2B |\
"Am"Acd e2d | e2d e3 | "F"A>cd "E7"e2d | "Am"cA2-A2 :|

